!!!OTL: 2032. Die arme Seele.
!!!ODT: 1880
!!!ARE: Europa, Mitteleuropa, Deutschland, Hessen, Hanau
!!!SCT: E2032
!!!TXL: @@DE
!!!YEM: Copyright 1995, estate of Helmut Schaffrath.
**kern	**text
*ICvox	*
*M3/4	*
*k[b-]	*
*F:	*
!LO:TX:a:t=Langsam.	!
!LO:TX:a:t=Mel. aus Hanau. 1880.	!
{8fL	Es
8aJ	.
=1	=1
4cc	ſan-
4a	-gen
8ccL	drei
8ddJ	.
=2	=2
8ccL	En-
8b-J	.
4g	-gel
8b-	ei-
8b-	-nen
=3	=3
4a	ſchö-
4cc	-nen
4a	Ge-
=4	=4
2g}	-ſang,
{4cc	ſie
=5	=5
4dd	ſan-
4dd	-gen
4ee	ſo
=6	=6
(8ffL	hoch,
8ddJ	.
4cc)	.
8dd	daß's
8b-	ʒum
=7	=7
4a	Him-
4cc	-mel
4g	'nein
=8	=8
2f}	klang.
{4cc	ſie
=9	=9
4dd	ſan-
4dd	-gen
4ee	ſo
=10	=10
(8ffL	hoch,
8ddJ	.
4cc)	.
8dd	daß's
8b-	ʒum
=11	=11
4a	Him-
4cc	-mel
4g	'nein
=12	=12
2f}	klang.
==	==
!!!AGN: geistlich, Wallfahrts - Lied
!!!ONB: ESAC (Essen Associative Code) Database: ERK3
!!!AMT: simple triple
!!!AIN: vox
!!!EED: Helmut Schaffrath
!!!EEV: 1.0
!!!GTL: 4. Katholische Lieder: a) Wallfahrtlieder zur Bittwoche und zum Fronleichnamstag.
!!!URL-scan: https://rosdok.uni-rostock.de/mcrviewer/recordIdentifier/rosdok_ppn745177999/iview2/phys_0740.iview2?x=172.5045755776273&y=1185.953284099698&scale=0.7014306698522891&rotation=0&layout=singlePageLayout
!!!ENC: Anna Maria Matuszewska
!!!EEV: 2025/10/01
*-	*-
